X:96
T:Commodore Flip. ThoH.096
Q:1/2=80
M:3/2
L:1/8
B:Thompson's Compleat Collection of 120 Favourite Hornpipes.
Z:Village Music Project, Simon Wilson 2016
O:England.
K:F
fac4B2(AB)c2|B,(B/c/) dc BAGF{F}E4|(CEG).B .e.g.a.g .a.c'.a.f|(efg)a bgaf gec2|
fac4B2ABc2|B,(B/c/) dc BAGF{F}E3c|=BdBG cedf egec|Fafd ecd=Bc4:|
|:(c/d/_e)Ac ^FADF Acfa|c'a^fc afcA BGAF|G(B/c/)dc BAGF =Ec.g.g |.g.g(gf) .e.d.c(B A)GFE|
(FA)(cA) (_ec)(ge) dB(AB)|G=BdB fdafe4|(ceg)b ac'(eg) (fa)(c_e)|dbag afgef4|
C(EGB) (egb)g .a.c'.a.f|C(EGB) (egb)g .a.c'.a.f|CEGB egbg .a.c'.a.f|d2bg afgef3d|
cF {G}TF(E//F//) DF {G}TF(E//F//)B,3c|cF {G}TFE//F// DF TFE//F//G,3d|dF TF(E//F//) DF (TFE//F//) G,(EB).d|.c(AGF) .B(GFE)F4:|

